stereocamera/data/h3.cube
TITLE "Hero3+_to_Hero10"
LUT_3D_SIZE 33
0.0308859 0.0451183 0.0608149
0.0683191 0.0460766 0.0674405
0.1057491 0.0480630 0.0743650
0.1431760 0.0510776 0.0815884
0.1805997 0.0551203 0.0891108
0.2180203 0.0601912 0.0969321
0.2554377 0.0662903 0.1050524
0.2928519 0.0734176 0.1134716
0.3302631 0.0815730 0.1221898
0.3676710 0.0907566 0.1312069
0.4050758 0.1009684 0.1405230
0.4424775 0.1122083 0.1501380
0.4798760 0.1244764 0.1600519
0.5172713 0.1377727 0.1702648
0.5546635 0.1520972 0.1807767
0.5920526 0.1674498 0.1915875
0.6294385 0.1838306 0.2026972
0.6668212 0.2012395 0.2141059
0.7042008 0.2196767 0.2258135
0.7415772 0.2391420 0.2378201
0.7789505 0.2596355 0.2501256
0.8163206 0.2811571 0.2627300
0.8536876 0.3037069 0.2756334
0.8910515 0.3272849 0.2888358
0.9284121 0.3518911 0.3023371
0.9657697 0.3775254 0.3161373
1.0000000 0.4041879 0.3302365
1.0000000 0.4318786 0.3446346
1.0000000 0.4605974 0.3593317
1.0000000 0.4903444 0.3743277
1.0000000 0.5211196 0.3896227
1.0000000 0.5529230 0.4052166
1.0000000 0.5857545 0.4211095
0.0107264 0.0648450 0.0535542
0.0483323 0.0651853 0.0611708
0.0859350 0.0665538 0.0690863
0.1235345 0.0689504 0.0773008
0.1611309 0.0723752 0.0858142
0.1987242 0.0768282 0.0946266
0.2363143 0.0823093 0.1037379
0.2739012 0.0888186 0.1131481
0.3114850 0.0963561 0.1228573
0.3490656 0.1049218 0.1328655
0.3866431 0.1145156 0.1431726
0.4242174 0.1251376 0.1537786
0.4617886 0.1367877 0.1646836
0.4993567 0.1494661 0.1758875
0.5369215 0.1631726 0.1873904
0.5744833 0.1779073 0.1991922
0.6120419 0.1936701 0.2112930
0.6495973 0.2104611 0.2236927
0.6871496 0.2282803 0.2363913
0.7246987 0.2471277 0.2493889
0.7622446 0.2670032 0.2626855
0.7997875 0.2879069 0.2762810
0.8373271 0.3098388 0.2901754
0.8748636 0.3327988 0.3043688
0.9123970 0.3567870 0.3188611
0.9499272 0.3818034 0.3336524
0.9874543 0.4078480 0.3487426
1.0000000 0.4349207 0.3641318
1.0000000 0.4630216 0.3798199
1.0000000 0.4921506 0.3958069
1.0000000 0.5223079 0.4120929
1.0000000 0.5534933 0.4286778
1.0000000 0.5857069 0.4455617
0.0000000 0.0850839 0.0446820
0.0282839 0.0848062 0.0532896
0.0660593 0.0855567 0.0621961
0.1038315 0.0873354 0.0714016
0.1416006 0.0901423 0.0809061
0.1793666 0.0939773 0.0907095
0.2171293 0.0988405 0.1008118
0.2548890 0.1047318 0.1112131
0.2926454 0.1116514 0.1219133
0.3303988 0.1195991 0.1329125
0.3681489 0.1285750 0.1442106
0.4058959 0.1385790 0.1558077
0.4436398 0.1496112 0.1677037
0.4813805 0.1616716 0.1798987
0.5191181 0.1747602 0.1923926
0.5568525 0.1888769 0.2051854
0.5945838 0.2040218 0.2182772
0.6323119 0.2201949 0.2316680
0.6700368 0.2373961 0.2453577
0.7077586 0.2556255 0.2593463
0.7454773 0.2748831 0.2736339
0.7831928 0.2951689 0.2882204
0.8209051 0.3164828 0.3031058
0.8586143 0.3388249 0.3182903
0.8963204 0.3621951 0.3337736
0.9340233 0.3865936 0.3495559
0.9717230 0.4120202 0.3656372
1.0000000 0.4384750 0.3820173
1.0000000 0.4659579 0.3986965
1.0000000 0.4944690 0.4156746
1.0000000 0.5240083 0.4329516
1.0000000 0.5545758 0.4505276
1.0000000 0.5861714 0.4684025
0.0000000 0.1058348 0.0341982
0.0081741 0.1049392 0.0437968
0.0461222 0.1050718 0.0536944
0.0840671 0.1062325 0.0638909
0.1220089 0.1084214 0.0743864
0.1599475 0.1116385 0.0851809
0.1978829 0.1158838 0.0962742
0.2358152 0.1211572 0.1076665
0.2737444 0.1274588 0.1193578
0.3116704 0.1347885 0.1313480
0.3495932 0.1431465 0.1436372
0.3875130 0.1525326 0.1562253
0.4254295 0.1629468 0.1691123
0.4633429 0.1743893 0.1822983
0.5012531 0.1868599 0.1957832
0.5391602 0.2003587 0.2095671
0.5770642 0.2148856 0.2236499
0.6149650 0.2304407 0.2380317
0.6528626 0.2470240 0.2527124
0.6907571 0.2646355 0.2676921
0.7286484 0.2832751 0.2829707
0.7665366 0.3029429 0.2985482
0.8044217 0.3236389 0.3144247
0.8423035 0.3453631 0.3306002
0.8801823 0.3681154 0.3470746
0.9180578 0.3918959 0.3638479
0.9559303 0.4167045 0.3809202
0.9937995 0.4425414 0.3982914
1.0000000 0.4694064 0.4159616
1.0000000 0.4972995 0.4339307
1.0000000 0.5262209 0.4521987
1.0000000 0.5561704 0.4707657
1.0000000 0.5871481 0.4896317
0.0000000 0.1270980 0.0221029
0.0000000 0.1255844 0.0326925
0.0261235 0.1250990 0.0435812
0.0642411 0.1256418 0.0547687
0.1023556 0.1272128 0.0662552
0.1404669 0.1298119 0.0780407
0.1785750 0.1334392 0.0901251
0.2166800 0.1380947 0.1025084
0.2547819 0.1437783 0.1151907
0.2928805 0.1504901 0.1281720
0.3309761 0.1582301 0.1414522
0.3690685 0.1669983 0.1550313
0.4071577 0.1767946 0.1689094
0.4452438 0.1876191 0.1830864
0.4833267 0.1994717 0.1975624
0.5214065 0.2123526 0.2123373
0.5594831 0.2262616 0.2274111
0.5975566 0.2411988 0.2427839
0.6356269 0.2571641 0.2584557
0.6736941 0.2741576 0.2744264
0.7117581 0.2921793 0.2906960
0.7498190 0.3112292 0.3072646
0.7878767 0.3313072 0.3241321
0.8259313 0.3524134 0.3412986
0.8639827 0.3745478 0.3587640
0.9020309 0.3977103 0.3765284
0.9400760 0.4219010 0.3945917
0.9781180 0.4471199 0.4129539
1.0000000 0.4733670 0.4316151
1.0000000 0.5006422 0.4505753
1.0000000 0.5289456 0.4698343
1.0000000 0.5582771 0.4893924
1.0000000 0.5886369 0.5092494
0.0000000 0.1488732 0.0083960
0.0000000 0.1467417 0.0199767
0.0060634 0.1456384 0.0318564
0.0443537 0.1455632 0.0440350
0.0826408 0.1465162 0.0565125
0.1209248 0.1484974 0.0692890
0.1592056 0.1515068 0.0823644
0.1974833 0.1555443 0.0957388
0.2357578 0.1606100 0.1094121
0.2740292 0.1667039 0.1233844
0.3122974 0.1738259 0.1376556
0.3505625 0.1819761 0.1522258
0.3888244 0.1911545 0.1670949
0.4270832 0.2013610 0.1822629
0.4653388 0.2125957 0.1977299
0.5035913 0.2248586 0.2134959
0.5418406 0.2381497 0.2295608
0.5800867 0.2524689 0.2459246
0.6183297 0.2678163 0.2625874
0.6565696 0.2841919 0.2795491
0.6948063 0.3015956 0.2968098
0.7330398 0.3200275 0.3143694
0.7712702 0.3394876 0.3322279
0.8094975 0.3599759 0.3503854
0.8477216 0.3814923 0.3688419
0.8859425 0.4040369 0.3875973
0.9241603 0.4276097 0.4066516
0.9623750 0.4522106 0.4260049
1.0000000 0.4778397 0.4456571
1.0000000 0.5044970 0.4656083
1.0000000 0.5321824 0.4858584
1.0000000 0.5608960 0.5064075
1.0000000 0.5906378 0.5272555
0.0000000 0.1711606 0.0000000
0.0000000 0.1684112 0.0056493
0.0000000 0.1666899 0.0185200
0.0244048 0.1659968 0.0316897
0.0628646 0.1663319 0.0451582
0.1013213 0.1676951 0.0589258
0.1397748 0.1700865 0.0729922
0.1782251 0.1735061 0.0873576
0.2166723 0.1779538 0.1020220
0.2551164 0.1834297 0.1169853
0.2935573 0.1899338 0.1322475
0.3319950 0.1974661 0.1478087
0.3704296 0.2060265 0.1636689
0.4088611 0.2156151 0.1798279
0.4472894 0.2262319 0.1962860
0.4857145 0.2378768 0.2130429
0.5241365 0.2505499 0.2300989
0.5625554 0.2642512 0.2474537
0.6009711 0.2789807 0.2651075
0.6393836 0.2947383 0.2830603
0.6777930 0.3115241 0.3013120
0.7161992 0.3293381 0.3198626
0.7546023 0.3481802 0.3387122
0.7930022 0.3680505 0.3578608
0.8313990 0.3889490 0.3773082
0.8697926 0.4108756 0.3970547
0.9081831 0.4338304 0.4171000
0.9465704 0.4578134 0.4374443
0.9849546 0.4828246 0.4580876
1.0000000 0.5088639 0.4790298
1.0000000 0.5359314 0.5002710
1.0000000 0.5640271 0.5218111
1.0000000 0.5931509 0.5436501
0.0000000 0.1939602 0.0000000
0.0000000 0.1905928 0.0000000
0.0000000 0.1882535 0.0035722
0.0043944 0.1869425 0.0177328
0.0430269 0.1866596 0.0321924
0.0816562 0.1874049 0.0469510
0.1202824 0.1891784 0.0620085
0.1589055 0.1919800 0.0773649
0.1975253 0.1958098 0.0930203
0.2361421 0.2006678 0.1089746
0.2747557 0.2065539 0.1252279
0.3133661 0.2134682 0.1417801
0.3519734 0.2214107 0.1586313
0.3905775 0.2303813 0.1757814
0.4291785 0.2403802 0.1932305
0.4677763 0.2514072 0.2109785
0.5063710 0.2634623 0.2290254
0.5449625 0.2765457 0.2473713
0.5835509 0.2906572 0.2660162
0.6221361 0.3057968 0.2849599
0.6607182 0.3219647 0.3042027
0.6992971 0.3391607 0.3237444
0.7378729 0.3573849 0.3435850
0.7764455 0.3766373 0.3637245
0.8150149 0.3969178 0.3841630
0.8535813 0.4182265 0.4049005
0.8921444 0.4405634 0.4259369
0.9307044 0.4639284 0.4472723
0.9692613 0.4883216 0.4689065
1.0000000 0.5137430 0.4908398
1.0000000 0.5401926 0.5130720
1.0000000 0.5676703 0.5356031
1.0000000 0.5961762 0.5584332
0.0000000 0.2172718 0.0000000
0.0000000 0.2132865 0.0000000
0.0000000 0.2103293 0.0000000
0.0000000 0.2084003 0.0021644
0.0231277 0.2074995 0.0176151
0.0619297 0.2076268 0.0333647
0.1007286 0.2087824 0.0494132
0.1395243 0.2109660 0.0657607
0.1783169 0.2141779 0.0824071
0.2171063 0.2184179 0.0993525
0.2558925 0.2236861 0.1165968
0.2946757 0.2299825 0.1341400
0.3334556 0.2373070 0.1519822
0.3722324 0.2456597 0.1701234
0.4110061 0.2550406 0.1885634
0.4497766 0.2654496 0.2073025
0.4885440 0.2768869 0.2263405
0.5273082 0.2893523 0.2456774
0.5660692 0.3028458 0.2653133
0.6048271 0.3173675 0.2852481
0.6435819 0.3329174 0.3054818
0.6823335 0.3494955 0.3260145
0.7210819 0.3671018 0.3468462
0.7598272 0.3857362 0.3679768
0.7985694 0.4053987 0.3894063
0.8373084 0.4260895 0.4111348
0.8760442 0.4478084 0.4331623
0.9147769 0.4705555 0.4554886
0.9535065 0.4943308 0.4781140
0.9922328 0.5191342 0.5010382
1.0000000 0.5449658 0.5242614
1.0000000 0.5718256 0.5477836
1.0000000 0.5997136 0.5716047
0.0000000 0.2410957 0.0000000
0.0000000 0.2364924 0.0000000
0.0000000 0.2329173 0.0000000
0.0000000 0.2303703 0.0000000
0.0031670 0.2288515 0.0014262
0.0421417 0.2283609 0.0181668
0.0811132 0.2288985 0.0352064
0.1200816 0.2304642 0.0525449
0.1590469 0.2330581 0.0701823
0.1980090 0.2366802 0.0881187
0.2369679 0.2413305 0.1063541
0.2759237 0.2470089 0.1248884
0.3148764 0.2537155 0.1437216
0.3538259 0.2614502 0.1628538
0.3927722 0.2702132 0.1822849
0.4317154 0.2800043 0.2020149
0.4706555 0.2908235 0.2220440
0.5095924 0.3026710 0.2423719
0.5485261 0.3155466 0.2629988
0.5874567 0.3294504 0.2839247
0.6263841 0.3443823 0.3051495
0.6653084 0.3603425 0.3266732
0.7042295 0.3773307 0.3484959
0.7431475 0.3953472 0.3706175
0.7820623 0.4143918 0.3930381
0.8209740 0.4344647 0.4157576
0.8598825 0.4555656 0.4387761
0.8987879 0.4776948 0.4620935
0.9376901 0.5008521 0.4857098
0.9765892 0.5250376 0.5096251
1.0000000 0.5502512 0.5338394
1.0000000 0.5764931 0.5583526
1.0000000 0.6037631 0.5831647
0.0000000 0.2654316 0.0000000
0.0000000 0.2602104 0.0000000
0.0000000 0.2560173 0.0000000
0.0000000 0.2528524 0.0000000
0.0000000 0.2507157 0.0000000
0.0222922 0.2496072 0.0013574
0.0614364 0.2495268 0.0193880
0.1005775 0.2504746 0.0377176
0.1397154 0.2524505 0.0563460
0.1788502 0.2554547 0.0752735
0.2179819 0.2594870 0.0944998
0.2571103 0.2645474 0.1140252
0.2962357 0.2706361 0.1338494
0.3353578 0.2777529 0.1539726
0.3744769 0.2858979 0.1743948
0.4135928 0.2950710 0.1951159
0.4527055 0.3052724 0.2161359
0.4918151 0.3165018 0.2374549
0.5309215 0.3287595 0.2590728
0.5700247 0.3420453 0.2809897
0.6091249 0.3563594 0.3032055
0.6482218 0.3717015 0.3257203
0.6873156 0.3880719 0.3485340
0.7264063 0.4054704 0.3716467
0.7654938 0.4238971 0.3950583
0.8045782 0.4433519 0.4187688
0.8436594 0.4638350 0.4427783
0.8827374 0.4853462 0.4670868
0.9218123 0.5078856 0.4916942
0.9608841 0.5314531 0.5166005
0.9999527 0.5560488 0.5418058
1.0000000 0.5816727 0.5673100
1.0000000 0.6083247 0.5931131
0.0000000 0.2902797 0.0000000
0.0000000 0.2844406 0.0000000
0.0000000 0.2796296 0.0000000
0.0000000 0.2758467 0.0000000
0.0000000 0.2730920 0.0000000
0.0023812 0.2713655 0.0000000
0.0416981 0.2706672 0.0019581
0.0810119 0.2709971 0.0212787
0.1203225 0.2723551 0.0408982
0.1596300 0.2747413 0.0608167
0.1989343 0.2781556 0.0810341
0.2382354 0.2825981 0.1015504
0.2775335 0.2880688 0.1223657
0.3168283 0.2945677 0.1434800
0.3561200 0.3020947 0.1648931
0.3954086 0.3106499 0.1866053
0.4346940 0.3202333 0.2086163
0.4739763 0.3308449 0.2309264
0.5132554 0.3424846 0.2535353
0.5525313 0.3551525 0.2764432
0.5918041 0.3688485 0.2996501
0.6310738 0.3835728 0.3231559
0.6703403 0.3993252 0.3469606
0.7096036 0.4161057 0.3710643
0.7488638 0.4339145 0.3954670
0.7881208 0.4527514 0.4201685
0.8273747 0.4726165 0.4451691
0.8666255 0.4935097 0.4704685
0.9058731 0.5154311 0.4960670
0.9451175 0.5383807 0.5219643
0.9843588 0.5623585 0.5481606
1.0000000 0.5873644 0.5746559
1.0000000 0.6133985 0.6014501
0.0000000 0.3156400 0.0000000
0.0000000 0.3091829 0.0000000
0.0000000 0.3037539 0.0000000
0.0000000 0.2993531 0.0000000
0.0000000 0.2959805 0.0000000
0.0000000 0.2936361 0.0000000
0.0218983 0.2923198 0.0000000
0.0613847 0.2920317 0.0032283
0.1008680 0.2927717 0.0238389
0.1403482 0.2945400 0.0447484
0.1798252 0.2973364 0.0659568
0.2192991 0.3011610 0.0874642
0.2587698 0.3060137 0.1092705
0.2982373 0.3118946 0.1313758
0.3377017 0.3188037 0.1537800
0.3771629 0.3267410 0.1764831
0.4166210 0.3357064 0.1994852
0.4560760 0.3457000 0.2227863
0.4955278 0.3567218 0.2463863
0.5349764 0.3687717 0.2702852
0.5744219 0.3818498 0.2944831
0.6138642 0.3959561 0.3189799
0.6533034 0.4110906 0.3437757
0.6927394 0.4272532 0.3688704
0.7321723 0.4444440 0.3942641
0.7716020 0.4626630 0.4199567
0.8110286 0.4819101 0.4459483
0.8504520 0.5021854 0.4722388
0.8898723 0.5234889 0.4988282
0.9292894 0.5458205 0.5257166
0.9687034 0.5691803 0.5529039
1.0000000 0.5935683 0.5803902
1.0000000 0.6189845 0.6081755
0.0000000 0.3415124 0.0000000
0.0000000 0.3344373 0.0000000
0.0000000 0.3283904 0.0000000
0.0000000 0.3233717 0.0000000
0.0000000 0.3193811 0.0000000
0.0000000 0.3164187 0.0000000
0.0020370 0.3144845 0.0000000
0.0416961 0.3135784 0.0000000
0.0813521 0.3137006 0.0051680
0.1210050 0.3148508 0.0270685
0.1606546 0.3170293 0.0492680
0.2003012 0.3202359 0.0717664
0.2399446 0.3244707 0.0945637
0.2795848 0.3297337 0.1176600
0.3192219 0.3360249 0.1410553
0.3588558 0.3433442 0.1647495
0.3984866 0.3516916 0.1887426
0.4381142 0.3610673 0.2130347
0.4777387 0.3714711 0.2376257
0.5173600 0.3829031 0.2625157
0.5569782 0.3953633 0.2877046
0.5965932 0.4088516 0.3131924
0.6362050 0.4233681 0.3389793
0.6758137 0.4389128 0.3650650
0.7154193 0.4554857 0.3914497
0.7550217 0.4730867 0.4181333
0.7946210 0.4917159 0.4451159
0.8342171 0.5113732 0.4723975
0.8738100 0.5320588 0.4999779
0.9133998 0.5537725 0.5278574
0.9529865 0.5765143 0.5560357
0.9925700 0.6002844 0.5845130
1.0000000 0.6250826 0.6132893
0.0000000 0.3678969 0.0000000
0.0000000 0.3602039 0.0000000
0.0000000 0.3535390 0.0000000
0.0000000 0.3479024 0.0000000
0.0000000 0.3432939 0.0000000
0.0000000 0.3397135 0.0000000
0.0000000 0.3371613 0.0000000
0.0219460 0.3356373 0.0000000
0.0617747 0.3351415 0.0000000
0.1016002 0.3356739 0.0077771
0.1414226 0.3372344 0.0309676
0.1812418 0.3398231 0.0544570
0.2210579 0.3434399 0.0782454
0.2608708 0.3480849 0.1023327
0.3006806 0.3537581 0.1267190
0.3404872 0.3604595 0.1514042
0.3802906 0.3681890 0.1763884
0.4200909 0.3769467 0.2016715
0.4598881 0.3867326 0.2272536
0.4996821 0.3975467 0.2531346
0.5394729 0.4093889 0.2793145
0.5792606 0.4222593 0.3057934
0.6190452 0.4361578 0.3325713
0.6588266 0.4510846 0.3596480
0.6986048 0.4670395 0.3870238
0.7383799 0.4840225 0.4146984
0.7781519 0.5020338 0.4426721
0.8179206 0.5210732 0.4709446
0.8576863 0.5411408 0.4995161
0.8974488 0.5622365 0.5283866
0.9372081 0.5843605 0.5575560
0.9769643 0.6075126 0.5870243
1.0000000 0.6316928 0.6167916
0.0000000 0.3947936 0.0000000
0.0000000 0.3864826 0.0000000
0.0000000 0.3791998 0.0000000
0.0000000 0.3729452 0.0000000
0.0000000 0.3677187 0.0000000
0.0000000 0.3635205 0.0000000
0.0000000 0.3603503 0.0000000
0.0021345 0.3582084 0.0000000
0.0421358 0.3570946 0.0000000
0.0821340 0.3570090 0.0000000
0.1221291 0.3579516 0.0110557
0.1621210 0.3599223 0.0355362
0.2021097 0.3629212 0.0603156
0.2420953 0.3669483 0.0853939
0.2820778 0.3720035 0.1107712
0.3220571 0.3780870 0.1364475
0.3620332 0.3851986 0.1624227
0.4020062 0.3933383 0.1886968
0.4419760 0.4025062 0.2152699
0.4819427 0.4127023 0.2421420
0.5219062 0.4239266 0.2693129
0.5618666 0.4361791 0.2967829
0.6018239 0.4494597 0.3245517
0.6417779 0.4637685 0.3526195
0.6817289 0.4791054 0.3809863
0.7216766 0.4954705 0.4096520
0.7616213 0.5128638 0.4386167
0.8015627 0.5312853 0.4678803
0.8415010 0.5507349 0.4974428
0.8814362 0.5712127 0.5273043
0.9213682 0.5927187 0.5574647
0.9612971 0.6152529 0.5879241
1.0000000 0.6388152 0.6186824
0.0000000 0.4222024 0.0000000
0.0000000 0.4132735 0.0000000
0.0000000 0.4053728 0.0000000
0.0000000 0.3985002 0.0000000
0.0000000 0.3926558 0.0000000
0.0000000 0.3878395 0.0000000
0.0000000 0.3840515 0.0000000
0.0000000 0.3812916 0.0000000
0.0224354 0.3795599 0.0000000
0.0626063 0.3788563 0.0000000
0.1027741 0.3791809 0.0000000
0.1429386 0.3805337 0.0150037
0.1831001 0.3829147 0.0407742
0.2232583 0.3863238 0.0668436
0.2634135 0.3907611 0.0932119
0.3035654 0.3962266 0.1198792
0.3437143 0.4027202 0.1468454
0.3838599 0.4102420 0.1741106
0.4240025 0.4187920 0.2016747
0.4641418 0.4283702 0.2295378
0.5042781 0.4389765 0.2576998
0.5444111 0.4506110 0.2861608
0.5845410 0.4632737 0.3149207
0.6246678 0.4769645 0.3439795
0.6647914 0.4916835 0.3733373
0.7049119 0.5074307 0.4029940
0.7450292 0.5242060 0.4329497
0.7851433 0.5420096 0.4632043
0.8252543 0.5608412 0.4937579
0.8653622 0.5807011 0.5246104
0.9054669 0.6015891 0.5557619
0.9455684 0.6235053 0.5872123
0.9856668 0.6464497 0.6189616
0.0000000 0.4501234 0.0000000
0.0000000 0.4405765 0.0000000
0.0000000 0.4320578 0.0000000
0.0000000 0.4245673 0.0000000
0.0000000 0.4181049 0.0000000
0.0000000 0.4126708 0.0000000
0.0000000 0.4082648 0.0000000
0.0000000 0.4048869 0.0000000
0.0026736 0.4025372 0.0000000
0.0430171 0.4012157 0.0000000
0.0833575 0.4009224 0.0000000
0.1236948 0.4016573 0.0000000
0.1640289 0.4034203 0.0196213
0.2043599 0.4062115 0.0466817
0.2446877 0.4100308 0.0740411
0.2850124 0.4148783 0.1016994
0.3253339 0.4207540 0.1296567
0.3656522 0.4276579 0.1579129
0.4059674 0.4355899 0.1864680
0.4462795 0.4445501 0.2153221
0.4865884 0.4545385 0.2444751
0.5268941 0.4655551 0.2739271
0.5671967 0.4775998 0.3036781
0.6074962 0.4906727 0.3337279
0.6477925 0.5047737 0.3640768
0.6880856 0.5199030 0.3947245
0.7283756 0.5360604 0.4256712
0.7686624 0.5532459 0.4569169
0.8089461 0.5714597 0.4884615
0.8492266 0.5907016 0.5203050
0.8895040 0.6109717 0.5524475
0.9297783 0.6322699 0.5848890
0.9700493 0.6545964 0.6176294
0.0000000 0.4785565 0.0000000
0.0000000 0.4683917 0.0000000
0.0000000 0.4592550 0.0000000
0.0000000 0.4511466 0.0000000
0.0000000 0.4440663 0.0000000
0.0000000 0.4380141 0.0000000
0.0000000 0.4329902 0.0000000
0.0000000 0.4289944 0.0000000
0.0000000 0.4260268 0.0000000
0.0233665 0.4240873 0.0000000
0.0638796 0.4231760 0.0000000
0.1043895 0.4232929 0.0000000
0.1448963 0.4244380 0.0000000
0.1853999 0.4266112 0.0249083
0.2259004 0.4298127 0.0532587
0.2663978 0.4340422 0.0819080
0.3068920 0.4393000 0.1108563
0.3473830 0.4455859 0.1401036
0.3878709 0.4529000 0.1696497
0.4283556 0.4612422 0.1994949
0.4688372 0.4706127 0.2296389
0.5093156 0.4810113 0.2600820
0.5497909 0.4924381 0.2908239
0.5902630 0.5048930 0.3218648
0.6307320 0.5183761 0.3532047
0.6711979 0.5328874 0.3848435
0.7116605 0.5484268 0.4167812
0.7521200 0.5649945 0.4490179
0.7925764 0.5825903 0.4815535
0.8330296 0.6012142 0.5143881
0.8734797 0.6208664 0.5475216
0.9139266 0.6415467 0.5809541
0.9543704 0.6632552 0.6146855
0.0000000 0.5075017 0.0000000
0.0000000 0.4967190 0.0000000
0.0000000 0.4869644 0.0000000
0.0000000 0.4782380 0.0000000
0.0000000 0.4705397 0.0000000
0.0000000 0.4638696 0.0000000
0.0000000 0.4582277 0.0000000
0.0000000 0.4536140 0.0000000
0.0000000 0.4500284 0.0000000
0.0036543 0.4474710 0.0000000
0.0443401 0.4459418 0.0000000
0.0850227 0.4454408 0.0000000
0.1257022 0.4459679 0.0000000
0.1663785 0.4475232 0.0015233
0.2070517 0.4501066 0.0308648
0.2477217 0.4537183 0.0605051
0.2883886 0.4583581 0.0904445
0.3290523 0.4640260 0.1206827
0.3697129 0.4707222 0.1512199
0.4103703 0.4784465 0.1820561
0.4510246 0.4871990 0.2131912
0.4916757 0.4969796 0.2446253
0.5323236 0.5077885 0.2763582
0.5729684 0.5196255 0.3083902
0.6136101 0.5324906 0.3407211
0.6542486 0.5463840 0.3733509
0.6948840 0.5613055 0.4062797
0.7355162 0.5772551 0.4395074
0.7761452 0.5942330 0.4730341
0.8167711 0.6122390 0.5068597
0.8573939 0.6312732 0.5409842
0.8980135 0.6513356 0.5754077
0.9386299 0.6724261 0.6101302
0.0000000 0.5369591 0.0000000
0.0000000 0.5255584 0.0000000
0.0000000 0.5151859 0.0000000
0.0000000 0.5058415 0.0000000
0.0000000 0.4975253 0.0000000
0.0000000 0.4902373 0.0000000
0.0000000 0.4839774 0.0000000
0.0000000 0.4787458 0.0000000
0.0000000 0.4745422 0.0000000
0.0000000 0.4713669 0.0000000
0.0247391 0.4692197 0.0000000
0.0655944 0.4681007 0.0000000
0.1064466 0.4680099 0.0000000
0.1472956 0.4689473 0.0000000
0.1881414 0.4709128 0.0068593
0.2289842 0.4739064 0.0374907
0.2698237 0.4779283 0.0684211
0.3106601 0.4829783 0.0996504
0.3514934 0.4890565 0.1311786
0.3923235 0.4961629 0.1630058
0.4331504 0.5042974 0.1951319
0.4739742 0.5134601 0.2275570
0.5147949 0.5236510 0.2602810
0.5556124 0.5348701 0.2933040
0.5964267 0.5471173 0.3266259
0.6372379 0.5603927 0.3602468
0.6780459 0.5746962 0.3941666
0.7188508 0.5900280 0.4283853
0.7596526 0.6063879 0.4629030
0.8004511 0.6237759 0.4977197
0.8412466 0.6421922 0.5328353
0.8820389 0.6616366 0.5682498
0.9228280 0.6821092 0.6039633
0.0000000 0.5669286 0.0000000
0.0000000 0.5549100 0.0000000
0.0000000 0.5439195 0.0000000
0.0000000 0.5339572 0.0000000
0.0000000 0.5250230 0.0000000
0.0000000 0.5171171 0.0000000
0.0000000 0.5102393 0.0000000
0.0000000 0.5043896 0.0000000
0.0000000 0.4995682 0.0000000
0.0000000 0.4957749 0.0000000
0.0050766 0.4930098 0.0000000
0.0461046 0.4912728 0.0000000
0.0871295 0.4905641 0.0000000
0.1281512 0.4908835 0.0000000
0.1691697 0.4922310 0.0000000
0.2101851 0.4946068 0.0128648
0.2511973 0.4980107 0.0447861
0.2922064 0.5024428 0.0770065
0.3332124 0.5079030 0.1095257
0.3742152 0.5143914 0.1423440
0.4152148 0.5219080 0.1754611
0.4562113 0.5304528 0.2088772
0.4972046 0.5400257 0.2425923
0.5381948 0.5506268 0.2766063
0.5791818 0.5622561 0.3109192
0.6201657 0.5749135 0.3455311
0.6611464 0.5885991 0.3804420
0.7021240 0.6033129 0.4156518
0.7430984 0.6190549 0.4511605
0.7840697 0.6358250 0.4869681
0.8250378 0.6536233 0.5230748
0.8660027 0.6724498 0.5594803
0.9069645 0.6923044 0.5961848
0.0000000 0.5974103 0.0000000
0.0000000 0.5847737 0.0000000
0.0000000 0.5731653 0.0000000
0.0000000 0.5625850 0.0000000
0.0000000 0.5530329 0.0000000
0.0000000 0.5445090 0.0000000
0.0000000 0.5370133 0.0000000
0.0000000 0.5305457 0.0000000
0.0000000 0.5251063 0.0000000
0.0000000 0.5206951 0.0000000
0.0000000 0.5173120 0.0000000
0.0265534 0.5149571 0.0000000
0.0677509 0.5136304 0.0000000
0.1089453 0.5133318 0.0000000
0.1501365 0.5140614 0.0000000
0.1913246 0.5158192 0.0000000
0.2325095 0.5186052 0.0195397
0.2736913 0.5224193 0.0527510
0.3148699 0.5272616 0.0862613
0.3560454 0.5331321 0.1200706
0.3972177 0.5400307 0.1541788
0.4383868 0.5479576 0.1885859
0.4795529 0.5569125 0.2232920
0.5207157 0.5668957 0.2582970
0.5618754 0.5779070 0.2936010
0.6030320 0.5899465 0.3292039
0.6441854 0.6030142 0.3651058
0.6853356 0.6171100 0.4013066
0.7264827 0.6322340 0.4378064
0.7676267 0.6483862 0.4746051
0.8087675 0.6655666 0.5117027
0.8499051 0.6837751 0.5490993
0.8910396 0.7030118 0.5867949
0.0000000 0.6284041 0.0000000
0.0000000 0.6151496 0.0000000
0.0000000 0.6029232 0.0000000
0.0000000 0.5917250 0.0000000
0.0000000 0.5815549 0.0000000
0.0000000 0.5724131 0.0000000
0.0000000 0.5642994 0.0000000
0.0000000 0.5572139 0.0000000
0.0000000 0.5511565 0.0000000
0.0000000 0.5461273 0.0000000
0.0000000 0.5421263 0.0000000
0.0069406 0.5391535 0.0000000
0.0483108 0.5372088 0.0000000
0.0896779 0.5362923 0.0000000
0.1310418 0.5364040 0.0000000
0.1724026 0.5375438 0.0000000
0.2137602 0.5397119 0.0000000
0.2551146 0.5429080 0.0268841
0.2964659 0.5471324 0.0613854
0.3378141 0.5523849 0.0961857
0.3791591 0.5586656 0.1312849
0.4205009 0.5659745 0.1666831
0.4618396 0.5743115 0.2023802
0.5031752 0.5836767 0.2383763
0.5445075 0.5940701 0.2746713
0.5858368 0.6054917 0.3112652
0.6271629 0.6179414 0.3481581
0.6684858 0.6314193 0.3853500
0.7098056 0.6459253 0.4228408
0.7511222 0.6614596 0.4606305
0.7924357 0.6780220 0.4987192
0.8337460 0.6956125 0.5371068
0.8750532 0.7142313 0.5757934
0.0000000 0.6599101 0.0000000
0.0000000 0.6460376 0.0000000
0.0000000 0.6331932 0.0000000
0.0000000 0.6213771 0.0000000
0.0000000 0.6105891 0.0000000
0.0000000 0.6008293 0.0000000
