stereocamera/data/h3.cube
TITLE "Hero3+_to_Hero10"
LUT_3D_SIZE 5
0.0308859 0.0451183 0.0608149
0.3302631 0.0815730 0.1221898
0.6294385 0.1838306 0.2026972
0.9284121 0.3518911 0.3023371
1.0000000 0.5857545 0.4211095
0.0000000 0.2172718 0.0000000
0.1783169 0.2141779 0.0824071
0.4885440 0.2768869 0.2263405
0.7985694 0.4053987 0.3894063
1.0000000 0.5997136 0.5716047
0.0000000 0.4222024 0.0000000
0.0224354 0.3795599 0.0000000
0.3437143 0.4027202 0.1468454
0.6647914 0.4916835 0.3733373
0.9856668 0.6464497 0.6189616
0.0000000 0.6599101 0.0000000
0.0000000 0.5777189 0.0000000
0.1949493 0.5613307 0.0000000
0.5270782 0.6107453 0.2541300
0.8590053 0.7259629 0.5631803
0.0000000 0.9303948 0.0000000
0.0000000 0.8086550 0.0000000
0.0422492 0.7527182 0.0000000
0.3854297 0.7625842 0.0317844
0.7284086 0.8382532 0.4042607
0.0621638 0.1241934 0.3584399
0.3538713 0.1473741 0.3017474
0.6453770 0.2363578 0.2641874
0.9366810 0.3911444 0.2457599
1.0000000 0.6117339 0.2464649
0.0000000 0.2874826 0.3162653
0.2141892 0.2711148 0.3229988
0.5167466 0.3205499 0.3488649
0.8191024 0.4357878 0.3938634
1.0000000 0.6168288 0.4579944
0.0000000 0.4835490 0.1709525
0.0705720 0.4276325 0.2411120
0.3841811 0.4375190 0.3304040
0.6975885 0.5132084 0.4388285
1.0000000 0.6547007 0.5663855
0.0000000 0.7123923 0.0000000
0.0000000 0.6169273 0.0560869
0.2476803 0.5872652 0.2088049
0.5721395 0.6234059 0.3806554
0.8963969 0.7253496 0.5716384
0.0000000 0.9740128 0.0000000
0.0000000 0.8389992 0.0000000
0.1072443 0.7697884 0.0000000
0.4427552 0.7663806 0.2193440
0.7780643 0.8287757 0.4737529
0.0634576 0.2087934 0.6982938
0.3474953 0.2187003 0.5235340
0.6313313 0.2944101 0.3679066
0.9149656 0.4359228 0.2314118
1.0000000 0.6432384 0.1140494
0.0000000 0.3632184 0.7171535
0.2200774 0.3335767 0.6058196
0.5149651 0.3697379 0.5136183
0.8096511 0.4717020 0.4405494
1.0000000 0.6394690 0.3866130
0.0000000 0.5504205 0.6328749
0.0887243 0.4812302 0.5849670
0.3946637 0.4778427 0.5561916
0.7004015 0.5402582 0.5465488
1.0000000 0.6684767 0.5560384
0.0000000 0.7703997 0.4454580
0.0000000 0.6616607 0.4609761
0.2704271 0.6187247 0.4956267
0.5872166 0.6415916 0.5494098
0.9038043 0.7302614 0.6223254
0.0000000 1.0000000 0.1549028
0.0000000 0.8748683 0.2338469
0.1422553 0.7923837 0.3319235
0.4700964 0.7757020 0.4491326
0.7977359 0.8248232 0.5854742
0.0347671 0.2989185 1.0000000
0.3111351 0.2955515 0.7875496
0.5873014 0.3579874 0.5138549
0.8632660 0.4862262 0.2592926
1.0000000 0.6802679 0.0238629
0.0000000 0.4444793 1.0000000
0.1959814 0.4015636 0.9308694
0.4831994 0.4244509 0.7206007
0.7702157 0.5131411 0.5294645
1.0000000 0.6676343 0.3574607
0.0000000 0.6228171 1.0000000
0.0768924 0.5403529 0.9710510
0.3751622 0.5236916 0.8242082
0.6732302 0.5728332 0.6964980
0.9710965 0.6877777 0.5879203
0.0000000 0.8339320 1.0000000
0.0000000 0.7119192 0.9080943
0.2631897 0.6557093 0.8246775
0.5723095 0.6653022 0.7603933
0.8812275 0.7406982 0.7152415
0.0000000 1.0000000 0.7811225
0.0000000 0.9162626 0.7419993
0.1472820 0.8205040 0.7220085
0.4674535 0.7905484 0.7211502
0.7874233 0.8263957 0.7394245
0.0000000 0.3945686 1.0000000
0.2447907 0.3779277 1.0000000
0.5132873 0.4270897 0.7020321
0.7815822 0.5420546 0.3294025
1.0000000 0.7228224 0.0000000
0.0000000 0.5312652 1.0000000
0.1419012 0.4750756 1.0000000
0.4214495 0.4846890 0.9698121
0.7007961 0.5601053 0.6606086
0.9799410 0.7013245 0.3705375
0.0000000 0.7007387 1.0000000
0.0350764 0.6050006 1.0000000
0.3256764 0.5750654 1.0000000
0.6160748 0.6109331 0.8886763
0.9062714 0.7126037 0.6620312
0.0000000 0.9029894 1.0000000
0.0000000 0.7677027 1.0000000
0.2259681 0.6982188 1.0000000
0.5274182 0.6945379 1.0000000
0.8286665 0.7566600 0.8503866
0.0000000 1.0000000 1.0000000
0.0000000 0.9631818 1.0000000
0.1223246 0.8541494 1.0000000
0.4348264 0.8109199 1.0000000
0.7471264 0.8334933 0.9356038
