stereocamera/data/h3.cube
TITLE "Hero3+_to_Hero10"
LUT_3D_SIZE 9
0.0308859 0.0451183 0.0608149
0.1805997 0.0551203 0.0891108
0.3302631 0.0815730 0.1221898
0.4798760 0.1244764 0.1600519
0.6294385 0.1838306 0.2026972
0.7789505 0.2596355 0.2501256
0.9284121 0.3518911 0.3023371
1.0000000 0.4605974 0.3593317
1.0000000 0.5857545 0.4211095
0.0000000 0.1270980 0.0221029
0.1023556 0.1272128 0.0662552
0.2547819 0.1437783 0.1151907
0.4071577 0.1767946 0.1689094
0.5594831 0.2262616 0.2274111
0.7117581 0.2921793 0.2906960
0.8639827 0.3745478 0.3587640
1.0000000 0.4733670 0.4316151
1.0000000 0.5886369 0.5092494
0.0000000 0.2172718 0.0000000
0.0231277 0.2074995 0.0176151
0.1783169 0.2141779 0.0824071
0.3334556 0.2373070 0.1519822
0.4885440 0.2768869 0.2263405
0.6435819 0.3329174 0.3054818
0.7985694 0.4053987 0.3894063
0.9535065 0.4943308 0.4781140
1.0000000 0.5997136 0.5716047
0.0000000 0.3156400 0.0000000
0.0000000 0.2959805 0.0000000
0.1008680 0.2927717 0.0238389
0.2587698 0.3060137 0.1092705
0.4166210 0.3357064 0.1994852
0.5744219 0.3818498 0.2944831
0.7321723 0.4444440 0.3942641
0.8898723 0.5234889 0.4988282
1.0000000 0.6189845 0.6081755
0.0000000 0.4222024 0.0000000
0.0000000 0.3926558 0.0000000
0.0224354 0.3795599 0.0000000
0.1831001 0.3829147 0.0407742
0.3437143 0.4027202 0.1468454
0.5042781 0.4389765 0.2576998
0.6647914 0.4916835 0.3733373
0.8252543 0.5608412 0.4937579
0.9856668 0.6464497 0.6189616
0.0000000 0.5369591 0.0000000
0.0000000 0.4975253 0.0000000
0.0000000 0.4745422 0.0000000
0.1064466 0.4680099 0.0000000
0.2698237 0.4779283 0.0684211
0.4331504 0.5042974 0.1951319
0.5964267 0.5471173 0.3266259
0.7596526 0.6063879 0.4629030
0.9228280 0.6821092 0.6039633
0.0000000 0.6599101 0.0000000
0.0000000 0.6105891 0.0000000
0.0000000 0.5777189 0.0000000
0.0288093 0.5612994 0.0000000
0.1949493 0.5613307 0.0000000
0.3610390 0.5778126 0.1067795
0.5270782 0.6107453 0.2541300
0.6930670 0.6601288 0.4062636
0.8590053 0.7259629 0.5631803
0.0000000 0.7910553 0.0000000
0.0000000 0.7318472 0.0000000
0.0000000 0.6890898 0.0000000
0.0000000 0.6627832 0.0000000
0.1190912 0.6529273 0.0000000
0.2879437 0.6595221 0.0000000
0.4567459 0.6825676 0.1558495
0.6254976 0.7220639 0.3238396
0.7941989 0.7780109 0.4966128
0.0000000 0.9303948 0.0000000
0.0000000 0.8612995 0.0000000
0.0000000 0.8086550 0.0000000
0.0000000 0.7724612 0.0000000
0.0422492 0.7527182 0.0000000
0.2138647 0.7494258 0.0000000
0.3854297 0.7625842 0.0317844
0.5569444 0.7921934 0.2156310
0.7284086 0.8382532 0.4042607
0.0502729 0.0839652 0.2043488
0.1980693 0.0906487 0.2031278
0.3458152 0.1137829 0.2066900
0.4935107 0.1533679 0.2150353
0.6411557 0.2094036 0.2281637
0.7887504 0.2818900 0.2460752
0.9362946 0.3708271 0.2687699
1.0000000 0.4762150 0.2962477
1.0000000 0.5980536 0.3285086
0.0000000 0.1637288 0.1808952
0.1228912 0.1605251 0.1955308
0.2734000 0.1737722 0.2149494
0.4238584 0.2034700 0.2391512
0.5742664 0.2496185 0.2681361
0.7246240 0.3122178 0.3019042
0.8749311 0.3912678 0.3404553
1.0000000 0.4867685 0.3837896
1.0000000 0.5987199 0.4319070
0.0000000 0.2516866 0.1316571
0.0467293 0.2385958 0.1621492
0.2000011 0.2419557 0.1974243
0.3532224 0.2617664 0.2374826
0.5063933 0.2980277 0.2823240
0.6595138 0.3507398 0.3319486
0.8125839 0.4199027 0.3863562
0.9656035 0.5055162 0.4455470
1.0000000 0.6075805 0.5095209
0.0000000 0.3478387 0.0566345
0.0000000 0.3248607 0.1029830
0.1256183 0.3183335 0.1541147
0.2816026 0.3282570 0.2100294
0.4375364 0.3546312 0.2707274
0.5934198 0.3974562 0.3362084
0.7492528 0.4567319 0.4064725
0.9050354 0.5324583 0.4815198
1.0000000 0.6246354 0.5613502
0.0000000 0.4521851 0.0000000
0.0000000 0.4193199 0.0180323
0.0502517 0.4029056 0.0850204
0.2089989 0.4029419 0.1567917
0.3676957 0.4194290 0.2333461
0.5263421 0.4523668 0.3146836
0.6849380 0.5017553 0.4008043
0.8434835 0.5675946 0.4917081
1.0000000 0.6498846 0.5873949
0.0000000 0.5647257 0.0000000
0.0000000 0.5219734 0.0000000
0.0000000 0.4956719 0.0000000
0.1354115 0.4858211 0.0777694
0.2968712 0.4924210 0.1701803
0.4582805 0.5154716 0.2673743
0.6196393 0.5549730 0.3693515
0.7809478 0.6109251 0.4761117
0.9422058 0.6833280 0.5876551
0.0000000 0.6854606 0.0000000
0.0000000 0.6328212 0.0000000
0.0000000 0.5966325 0.0000000
0.0608402 0.5768945 0.0000000
0.2250629 0.5736073 0.0812299
0.3892351 0.5867708 0.1942804
0.5533569 0.6163850 0.3121141
0.7174282 0.6624500 0.4347308
0.8814491 0.7249657 0.5621307
0.0000000 0.8143897 0.0000000
0.0000000 0.7518632 0.0000000
0.0000000 0.7057873 0.0000000
0.0000000 0.6761622 0.0000000
0.1522707 0.6629878 0.0000000
0.3192059 0.6662642 0.0954019
0.4860906 0.6859913 0.2290921
0.6529249 0.7221691 0.3675654
0.8197087 0.7747976 0.5108217
0.0000000 0.9515132 0.0000000
0.0000000 0.8790994 0.0000000
0.0000000 0.8231364 0.0000000
0.0000000 0.7836242 0.0000000
0.0784948 0.7605627 0.0000000
0.2481928 0.7539519 0.0000000
0.4178405 0.7637918 0.1202855
0.5874377 0.7900824 0.2746153
0.7569845 0.8328238 0.4337282
0.0621638 0.1241934 0.3584399
0.2080428 0.1275584 0.3277021
0.3538713 0.1473741 0.3017474
0.4996493 0.1836406 0.2805758
0.6453770 0.2363578 0.2641874
0.7910542 0.3055257 0.2525821
0.9366810 0.3911444 0.2457599
1.0000000 0.4932138 0.2437209
1.0000000 0.6117339 0.2464649
0.0000000 0.2017409 0.3502449
0.1359307 0.1952187 0.3353636
0.2845221 0.2051473 0.3252654
0.4330631 0.2315266 0.3199503
0.5815537 0.2743567 0.3194184
0.7299938 0.3336375 0.3236696
0.8783836 0.4093690 0.3327039
1.0000000 0.5015512 0.3465214
1.0000000 0.6101842 0.3651219
0.0000000 0.2874826 0.3162653
0.0628349 0.2710733 0.3172405
0.2141892 0.2711148 0.3229988
0.3654931 0.2876070 0.3335403
0.5167466 0.3205499 0.3488649
0.6679497 0.3699435 0.3689725
0.8191024 0.4357878 0.3938634
0.9702046 0.5180829 0.4235373
1.0000000 0.6168288 0.4579944
0.0000000 0.3814187 0.2565012
0.0000000 0.3551222 0.2733329
0.1428725 0.3452765 0.2949477
0.2969393 0.3518815 0.3213457
0.4509558 0.3749373 0.3525267
0.6049218 0.4144438 0.3884909
0.7588373 0.4704010 0.4292382
0.9127025 0.5428089 0.4747687
1.0000000 0.6316676 0.5250822
0.0000000 0.4835490 0.1709525
0.0000000 0.4473654 0.2036407
0.0705720 0.4276325 0.2411120
0.2274017 0.4243504 0.2833665
0.3841811 0.4375190 0.3304040
0.5409100 0.4671383 0.3822247
0.6975885 0.5132084 0.4388285
0.8542166 0.5757291 0.5002154
1.0000000 0.6547007 0.5663855
0.0000000 0.5938735 0.0596193
0.0000000 0.5478028 0.1081639
0.0000000 0.5181828 0.1614918
0.1568803 0.5050135 0.2196027
0.3164226 0.5082949 0.2824968
0.4759145 0.5280271 0.3501739
0.6353559 0.5642100 0.4226342
0.7947469 0.6168437 0.4998777
0.9540875 0.6859280 0.5819042
0.0000000 0.7123923 0.0000000
0.0000000 0.6564345 0.0000000
0.0000000 0.6169273 0.0560869
0.0853751 0.5938709 0.1300544
0.2476803 0.5872652 0.2088049
0.4099351 0.5971102 0.2923386
0.5721395 0.6234059 0.3806554
0.7342934 0.6661524 0.4737553
0.8963969 0.7253496 0.5716384
0.0000000 0.8391054 0.0000000
0.0000000 0.7732604 0.0000000
0.0000000 0.7238661 0.0000000
0.0128861 0.6909225 0.0147214
0.1779542 0.6744297 0.1093285
0.3429719 0.6743875 0.2087187
0.5079392 0.6907961 0.3128920
0.6728561 0.7236555 0.4218484
0.8377225 0.7729655 0.5355879
0.0000000 0.9740128 0.0000000
0.0000000 0.8982806 0.0000000
0.0000000 0.8389992 0.0000000
0.0000000 0.7961684 0.0000000
0.1072443 0.7697884 0.0000000
0.2750250 0.7598591 0.0993142
0.4427552 0.7663806 0.2193440
0.6104350 0.7893528 0.3441569
0.7780643 0.8287757 0.4737529
0.0665587 0.1658028 0.5230882
0.2105202 0.1658493 0.4628336
0.3544313 0.1823466 0.4073620
0.4982919 0.2152946 0.3566737
0.6421021 0.2646933 0.3107684
0.7858619 0.3305428 0.2696462
0.9295713 0.4128430 0.2333072
1.0000000 0.5115939 0.2017513
1.0000000 0.6267955 0.1749785
0.0000000 0.2411342 0.5301518
0.1414742 0.2312936 0.4857536
0.2881482 0.2379037 0.4461386
0.4347718 0.2609646 0.4113067
0.5813449 0.3004761 0.3812579
0.7278676 0.3564384 0.3559923
0.8743399 0.4288515 0.3355098
1.0000000 0.5177153 0.3198104
1.0000000 0.6230298 0.3088941
0.0000000 0.3246599 0.5114308
0.0714444 0.3049321 0.4828891
0.2208813 0.3016551 0.4591306
0.3702678 0.3148288 0.4401552
0.5196039 0.3444532 0.4259629
0.6688895 0.3905284 0.4165538
0.8181248 0.4530543 0.4119278
0.9673096 0.5320309 0.4120848
1.0000000 0.6274582 0.4170251
0.0000000 0.4163799 0.4669252
0.0004308 0.3867650 0.4542401
0.1526306 0.3736008 0.4463380
0.3047801 0.3768873 0.4432191
0.4568791 0.3966246 0.4448834
0.6089276 0.4328126 0.4513307
0.7609258 0.4854513 0.4625612
0.9128735 0.5545408 0.4785748
1.0000000 0.6400810 0.4993715
0.0000000 0.5162941 0.3966351
0.0000000 0.4767920 0.3998064
0.0833961 0.4537407 0.4077609
0.2383085 0.4471401 0.4204985
0.3931704 0.4569902 0.4380192
0.5479819 0.4832911 0.4603230
0.7027430 0.5260427 0.4874100
0.8574537 0.5852450 0.5192801
1.0000000 0.6608980 0.5559333
0.0000000 0.6244026 0.3005603
0.0000000 0.5750134 0.3195882
0.0131778 0.5420749 0.3433992
0.1708531 0.5255872 0.3719933
0.3284780 0.5255501 0.4053705
0.4860524 0.5419638 0.4435308
0.6435764 0.5748283 0.4864743
0.8010500 0.6241434 0.5342009
0.9584732 0.6899093 0.5867106
0.0000000 0.7407054 0.1787011
0.0000000 0.6814290 0.2135854
0.0000000 0.6386034 0.2532529
0.1024139 0.6122285 0.2977035
0.2628017 0.6023043 0.3469372
0.4231391 0.6088308 0.4009540
0.5834260 0.6318081 0.4597540
0.7436626 0.6712361 0.5233371
0.9038486 0.7271149 0.5917033
0.0000000 0.8652024 0.0310572
0.0000000 0.7960389 0.0817980
0.0000000 0.7433261 0.1373220
0.0329910 0.7070641 0.1976291
0.1961417 0.6872527 0.2627193
0.3592420 0.6838921 0.3325926
0.5222918 0.6969823 0.4072491
0.6852913 0.7265231 0.4866887
0.8482403 0.7725147 0.5709114
0.0000000 0.9978937 0.0000000
0.0000000 0.9188431 0.0000000
0.0000000 0.8562431 0.0000000
0.0000000 0.8100939 0.0717702
0.1284978 0.7803954 0.1527169
0.2943610 0.7671477 0.2384467
0.4601738 0.7703507 0.3289597
0.6259362 0.7900044 0.4242557
0.7916481 0.8261088 0.5243349
0.0634576 0.2087934 0.6982938
0.2055016 0.2055215 0.6085223
0.3474953 0.2187003 0.5235340
0.4894385 0.2483298 0.4433287
0.6313313 0.2944101 0.3679066
0.7731736 0.3569411 0.2972676
0.9149656 0.4359228 0.2314118
1.0000000 0.5313552 0.1703390
1.0000000 0.6432384 0.1140494
0.0000000 0.2819088 0.7206159
0.1395217 0.2687497 0.6467009
0.2842782 0.2720414 0.5775691
0.4289844 0.2917837 0.5132203
0.5736401 0.3279768 0.4536547
0.7182454 0.3806207 0.3988722
0.8628003 0.4497152 0.3488729
1.0000000 0.5352605 0.3036566
1.0000000 0.6372566 0.2632235
0.0000000 0.3632184 0.7171535
0.0725579 0.3401722 0.6590950
0.2200774 0.3335767 0.6058196
0.3675465 0.3434319 0.5573274
0.5149651 0.3697379 0.5136183
0.6623333 0.4124946 0.4746923
0.8096511 0.4717020 0.4405494
0.9569185 0.5473601 0.4111897
1.0000000 0.6394690 0.3866130
0.0000000 0.4527223 0.6879064
0.0046103 0.4197890 0.6457045
0.1548927 0.4033063 0.6082856
0.3051247 0.4032744 0.5756499
0.4553063 0.4196932 0.5477972
0.6054375 0.4525627 0.5247277
0.7555182 0.5018830 0.5064414
0.9055485 0.5676540 0.4929381
1.0000000 0.6498757 0.4842180
0.0000000 0.5504205 0.6328749
0.0000000 0.5076000 0.6065294
0.0887243 0.4812302 0.5849670
0.2417192 0.4713111 0.5681877
0.3946637 0.4778427 0.5561916
0.5475578 0.5008251 0.5489786
0.7004015 0.5402582 0.5465488
0.8531947 0.5961421 0.5489020
1.0000000 0.6684767 0.5560384
0.0000000 0.6563130 0.5520587
0.0000000 0.6036053 0.5415697
0.0215720 0.5673483 0.5358638
0.1773299 0.5475421 0.5349411
0.3330373 0.5441866 0.5388015
0.4886943 0.5572818 0.5474449
0.6443009 0.5868278 0.5608716
0.7998571 0.6328245 0.5790813
0.9553628 0.6952719 0.6020742
0.0000000 0.7703997 0.4454580
0.0000000 0.7078048 0.4508255
0.0000000 0.6616607 0.4609761
0.1119567 0.6319673 0.4759098
0.2704271 0.6187247 0.4956267
0.4288470 0.6219328 0.5201267
0.5872166 0.6415916 0.5494098
0.7455356 0.6777011 0.5834761
0.9038043 0.7302614 0.6223254
0.0000000 0.8926806 0.3130726
0.0000000 0.8201987 0.3342966
0.0000000 0.7641674 0.3603038
0.0455998 0.7245869 0.3910940
0.2068331 0.7014571 0.4266674
0.3680160 0.6947780 0.4670239
0.5291484 0.7045496 0.5121635
0.6902304 0.7307720 0.5620862
0.8512620 0.7734452 0.6167921
0.0000000 1.0000000 0.1549028
0.0000000 0.9407867 0.1919833
0.0000000 0.8748683 0.2338469
0.0000000 0.8254007 0.2804936
0.1422553 0.7923837 0.3319235
0.3062011 0.7758175 0.3881365
0.4700964 0.7757020 0.4491326
0.6339414 0.7920372 0.5149118
0.7977359 0.8248232 0.5854742
0.0528603 0.2531653 0.8840567
0.1929870 0.2465749 0.7647683
0.3330632 0.2564353 0.6502631
0.4730890 0.2827463 0.5405411
0.6130644 0.3255081 0.4356021
0.7529893 0.3847206 0.3354463
0.8928638 0.4603838 0.2400736
1.0000000 0.5524978 0.1494840
1.0000000 0.6610625 0.0636775
0.0000000 0.3240647 0.9216373
0.1300731 0.3075871 0.8182055
0.2729122 0.3075603 0.7195568
0.4157009 0.3239842 0.6256912
0.5584392 0.3568588 0.5366088
0.7011271 0.4061842 0.4523094
0.8437645 0.4719603 0.3727932
0.9863515 0.5541871 0.2980601
1.0000000 0.6528646 0.2281102
0.0000000 0.4031582 0.9334334
0.0661753 0.3767935 0.8458581
0.2117774 0.3668795 0.7630659
0.3573291 0.3734163 0.6850568
0.5028303 0.3964038 0.6118309
0.6482811 0.4358420 0.5433880
0.7936814 0.4917309 0.4797283
0.9390314 0.5640706 0.4208517
1.0000000 0.6528610 0.3667583
0.0000000 0.4904461 0.9194450
0.0012938 0.4541942 0.8477261
0.1496588 0.4343931 0.7807904
0.2979734 0.4310427 0.7186378
0.4462375 0.4441430 0.6612684
0.5944513 0.4736941 0.6086820
0.7426146 0.5196959 0.5608788
0.8907274 0.5821484 0.5178587
1.0000000 0.6610516 0.4796218
0.0000000 0.5859282 0.8796719
0.0000000 0.5397892 0.8238096
0.0865564 0.5101009 0.7727304
0.2376339 0.4968633 0.7264343
0.3886610 0.5000765 0.6849213
0.5396376 0.5197404 0.6481915
0.6905639 0.5558551 0.6162448
0.8414397 0.6084204 0.5890812
0.9922650 0.6774365 0.5667007
0.0000000 0.6896046 0.8141143
0.0000000 0.6335784 0.7741084
0.0224701 0.5940030 0.7388857
0.1763106 0.5708783 0.7084461
0.3301006 0.5642043 0.6827897
0.4838402 0.5739811 0.6619163
0.6375294 0.6002085 0.6458261
0.7911681 0.6428868 0.6345190
0.9447564 0.7020157 0.6279951
0.0000000 0.8014752 0.7227721
0.0000000 0.7355619 0.6986228
0.0000000 0.6860993 0.6792565
0.1140035 0.6530875 0.6646735
0.2705564 0.6365263 0.6548735
0.4270589 0.6364159 0.6498566
0.5835110 0.6527563 0.6496229
0.7399127 0.6855473 0.6541723
0.8962639 0.7347891 0.6635048
0.0000000 0.9215401 0.6056453
0.0000000 0.8457397 0.5973525
0.0000000 0.7863899 0.5938428
0.0507126 0.7434909 0.5951162
0.2100285 0.7170427 0.6011727
0.3692939 0.7070451 0.6120124
0.5285089 0.7134983 0.6276351
0.6876735 0.7364022 0.6480410
0.8467877 0.7757569 0.6732301
0.0000000 1.0000000 0.4627340
0.0000000 0.9641117 0.4702977
0.0000000 0.8948748 0.4826444
0.0000000 0.8420887 0.4997743
0.1485167 0.8057532 0.5216874
0.3105450 0.7858685 0.5483835
0.4725230 0.7824346 0.5798628
0.6344505 0.7954513 0.6161252
0.7963276 0.8249188 0.6571707
0.0347671 0.2989185 1.0000000
0.1729763 0.2890096 0.9315716
0.3111351 0.2955515 0.7875496
0.4492435 0.3185441 0.6483107
0.5873014 0.3579874 0.5138549
0.7253089 0.4138814 0.3841822
0.8632660 0.4862262 0.2592926
1.0000000 0.5750217 0.1391862
1.0000000 0.6802679 0.0238629
0.0000000 0.3676018 1.0000000
0.1131284 0.3478057 1.0000000
0.2540501 0.3444604 0.8721018
0.3949214 0.3575659 0.7487194
0.5357423 0.3871220 0.6301201
0.6765127 0.4331289 0.5163039
0.8172328 0.4955865 0.4072708
0.9579024 0.5744949 0.3030209
1.0000000 0.6698539 0.2035541
0.0000000 0.4444793 1.0000000
0.0522967 0.4147961 1.0000000
0.1959814 0.4015636 0.9308694
0.3396156 0.4047819 0.8233435
0.4831994 0.4244509 0.7206007
0.6267328 0.4605707 0.6226410
0.7702157 0.5131411 0.5294645
0.9136482 0.5821623 0.4410710
1.0000000 0.6676343 0.3574607
0.0000000 0.5295511 1.0000000
0.0000000 0.4899807 1.0000000
0.1369288 0.4668611 0.9638525
0.2833260 0.4601923 0.8721831
0.4296727 0.4699741 0.7852968
0.5759690 0.4962067 0.7031936
0.7222149 0.5388900 0.6258735
0.8684103 0.5980241 0.5533366
1.0000000 0.6736088 0.4855828
0.0000000 0.6228171 1.0000000
0.0000000 0.5733596 1.0000000
0.0768924 0.5403529 0.9710510
0.2260525 0.5237969 0.8952381
0.3751622 0.5236916 0.8242082
0.5242214 0.5400370 0.7579616
0.6732302 0.5728332 0.6964980
0.8221886 0.6220800 0.6398176
0.9710965 0.6877777 0.5879203
0.0000000 0.7242774 1.0000000
0.0000000 0.6649328 1.0000000
0.0158722 0.6220389 0.9524649
0.1677953 0.5955957 0.8925085
0.3196678 0.5856033 0.8373352
0.4714900 0.5920616 0.7869450
0.6232617 0.6149706 0.7413379
0.7749830 0.6543303 0.7005140
0.9266539 0.7101408 0.6644732
0.0000000 0.8339320 1.0000000
0.0000000 0.7647002 0.9569773
0.0000000 0.7119192 0.9080943
0.1085542 0.6755889 0.8639943
0.2631897 0.6557093 0.8246775
0.4177748 0.6522804 0.7901438
0.5723095 0.6653022 0.7603933
0.7267937 0.6947748 0.7354258
0.8812275 0.7406982 0.7152415
0.0000000 0.9517809 0.9087753
0.0000000 0.8726619 0.8709656
0.0000000 0.8099937 0.8379390
0.0483293 0.7637763 0.8096956
0.2057278 0.7340095 0.7862353
0.3630758 0.7206935 0.7675581
0.5203734 0.7238282 0.7536640
0.6776206 0.7434136 0.7445531
0.8348173 0.7794498 0.7402253
0.0000000 1.0000000 0.7811225
0.0000000 0.9888179 0.7591693
0.0000000 0.9162626 0.7419993
0.0000000 0.8601579 0.7296123
0.1472820 0.8205040 0.7220085
0.3073930 0.7973009 0.7191878
0.4674535 0.7905484 0.7211502
0.6274636 0.8002467 0.7278958
0.7874233 0.8263957 0.7394245
0.0091778 0.3460529 1.0000000
0.1454696 0.3328256 1.0000000
0.2817109 0.3360490 0.9353933
0.4179019 0.3557231 0.7666375
0.5540424 0.3918479 0.6026649
0.6901325 0.4444235 0.4434754
0.8261722 0.5134498 0.2890690
0.9621614 0.5989268 0.1394457
1.0000000 0.7008545 0.0000000
0.0000000 0.4125201 1.0000000
0.0886877 0.3894056 1.0000000
0.2276920 0.3827419 1.0000000
0.3666459 0.3925288 0.8823048
0.5055493 0.4187665 0.7341886
0.6444024 0.4614549 0.5908556
0.7832050 0.5205940 0.4523057
0.9219571 0.5961839 0.3185389
1.0000000 0.6882245 0.1895553
0.0000000 0.4871816 1.0000000
0.0309221 0.4541799 1.0000000
0.1726893 0.4376290 1.0000000
0.3144061 0.4375288 0.9721874
0.4560725 0.4538793 0.8399278
0.5976884 0.4866806 0.7124513
0.7392539 0.5359326 0.5897579
0.8807690 0.6016353 0.4718476
1.0000000 0.6837888 0.3587205
0.0000000 0.5700373 1.0000000
0.0000000 0.5271485 1.0000000
0.1167028 0.5007104 1.0000000
0.2611825 0.4907231 1.0000000
0.4056118 0.4971865 0.9198824
0.5499907 0.5201006 0.8082624
0.6943191 0.5594654 0.7014255
0.8385972 0.6152810 0.5993717
0.9828248 0.6875473 0.5021011
0.0000000 0.6610873 1.0000000
0.0000000 0.6083113 1.0000000
0.0597324 0.5719861 1.0000000
0.2069751 0.5521116 1.0000000
0.3541673 0.5486878 0.9740524
0.5013091 0.5617148 0.8782889
0.6484005 0.5911925 0.7873085
0.7954415 0.6371209 0.7011112
0.9424320 0.6995001 0.6196971
0.0000000 0.7603316 1.0000000
0.0000000 0.6976685 1.0000000
0.0017783 0.6514561 1.0000000
0.1517839 0.6216944 1.0000000
0.3017390 0.6083835 1.0000000
0.4516438 0.6115233 0.9225309
0.6014981 0.6311138 0.8474070
0.7513020 0.6671551 0.7770662
0.9010554 0.7196471 0.7115085
0.0000000 0.8677701 1.0000000
0.0000000 0.7952198 1.0000000
0.0000000 0.7391203 1.0000000
0.0956088 0.6994715 1.0000000
0.2483269 0.6762734 1.0000000
0.4009946 0.6695261 0.9409883
0.5536118 0.6792295 0.8817209
0.7061787 0.7053836 0.8272366
0.8586950 0.7479884 0.7775354
0.0000000 0.9834029 1.0000000
0.0000000 0.9009655 1.0000000
0.0000000 0.8349788 1.0000000
0.0384500 0.7854428 1.0000000
0.1939310 0.7523576 0.9818551
0.3493616 0.7357231 0.9336611
0.5047418 0.7355394 0.8902502
0.6600716 0.7518063 0.8516224
0.8153509 0.7845240 0.8177777
0.0000000 1.0000000 1.0000000
0.0000000 1.0000000 1.0000000
0.0000000 0.9390315 1.0000000
0.0000000 0.8796084 0.9700075
0.1385513 0.8366361 0.9328869
0.2967449 0.8101144 0.9005493
0.4548880 0.8000435 0.8729949
0.6129806 0.8064233 0.8502237
0.7710229 0.8292539 0.8322355
0.0000000 0.3945686 1.0000000
0.1104668 0.3780228 1.0000000
0.2447907 0.3779277 1.0000000
0.3790643 0.3942833 0.8955216
0.5132873 0.4270897 0.7020321
0.6474600 0.4763468 0.5133258
0.7815822 0.5420546 0.3294025
0.9156541 0.6242132 0.1502624
1.0000000 0.7228224 0.0000000
0.0000000 0.4588198 1.0000000
0.0567510 0.4323868 1.0000000
0.1938379 0.4224045 1.0000000
0.3308743 0.4288730 1.0000000
0.4678603 0.4517922 0.8488144
0.6047959 0.4911622 0.6759646
0.7416811 0.5469828 0.5078978
0.8785158 0.6192542 0.3446142
1.0000000 0.7079764 0.1861137
0.0000000 0.5312652 1.0000000
0.0020514 0.4949450 1.0000000
0.1419012 0.4750756 1.0000000
0.2817005 0.4716570 1.0000000
0.4214495 0.4846890 0.9698121
0.5611480 0.5141718 0.8128188
0.7007961 0.5601053 0.6606086
0.8403938 0.6224896 0.5131814
0.9799410 0.7013245 0.3705375
0.0000000 0.6119048 1.0000000
0.0000000 0.5656975 1.0000000
0.0889807 0.5359410 1.0000000
0.2315430 0.5226352 1.0000000
0.3740549 0.5257801 1.0000000
0.5165163 0.5453757 0.9238884
0.6589273 0.5814221 0.7875347
0.8012879 0.6339192 0.6559641
0.9435981 0.7028670 0.5291766
0.0000000 0.7007387 1.0000000
0.0000000 0.6446443 1.0000000
0.0350764 0.6050006 1.0000000
0.1804016 0.5818076 1.0000000
0.3256764 0.5750654 1.0000000
0.4709008 0.5847739 1.0000000
0.6160748 0.6109331 0.8886763
0.7611983 0.6535430 0.7729622
0.9062714 0.7126037 0.6620312
0.0000000 0.7977669 1.0000000
0.0000000 0.7317854 1.0000000
0.0000000 0.6822545 1.0000000
0.1282764 0.6491744 1.0000000
0.2763142 0.6325450 1.0000000
0.4243015 0.6323663 1.0000000
0.5722384 0.6486384 0.9640333
0.7201248 0.6813612 0.8641757
0.8679609 0.7305347 0.7691012
0.0000000 0.9029894 1.0000000
0.0000000 0.8271207 1.0000000
0.0000000 0.7677027 1.0000000
0.0751675 0.7247354 1.0000000
0.2259681 0.6982188 1.0000000
0.3767184 0.6881530 1.0000000
0.5274182 0.6945379 1.0000000
0.6780676 0.7173736 0.9296046
0.8286665 0.7566600 0.8503866
0.0000000 1.0000000 1.0000000
0.0000000 0.9306503 1.0000000
0.0000000 0.8613451 1.0000000
0.0210747 0.8084907 1.0000000
0.1746383 0.7720870 1.0000000
0.3281514 0.7521340 1.0000000
0.4816142 0.7486318 1.0000000
0.6350265 0.7615803 0.9692490
0.7883884 0.7909795 0.9058875
0.0000000 1.0000000 1.0000000
0.0000000 1.0000000 1.0000000
0.0000000 0.9631818 1.0000000
0.0000000 0.9004402 1.0000000
0.1223246 0.8541494 1.0000000
0.2786007 0.8243093 1.0000000
0.4348264 0.8109199 1.0000000
0.5910016 0.8139812 0.9831088
0.7471264 0.8334933 0.9356038
